X:150
M:2/4
L:1/8
K:G>AB>c | d B2 e | dBAG | F D2 F | GABc | d B2 {cd}e | dcBA | {A}G4 :|
|: G>AB>c | (d<B)(g<d) | (e<c)(c'<c) | (d<B)(b<B) | G>AB>c | (dB)(ge) | bdcB | "tr"B2 A2 |

